elusive/braille.svg

<?xml version="1.0" encoding="UTF-8" standalone="no"?>
<!-- Generator: IcoMoon.io -->

<svg
   xmlns:dc="http://purl.org/dc/elements/1.1/"
   xmlns:cc="http://creativecommons.org/ns#"
   xmlns:rdf="http://www.w3.org/1999/02/22-rdf-syntax-ns#"
   xmlns:svg="http://www.w3.org/2000/svg"
   xmlns="http://www.w3.org/2000/svg"
   xmlns:sodipodi="http://sodipodi.sourceforge.net/DTD/sodipodi-0.dtd"
   xmlns:inkscape="http://www.inkscape.org/namespaces/inkscape"
   id="svg2"
   version="1.1"
   data-tags="remove-circle, cancel, close, remove, delete"
   height="1200"
   width="1200"
   data-du=""
   viewBox="0 0 1200 1200"
   inkscape:version="0.48.4 r9939"
   sodipodi:docname="braille.svg">
  <defs
     id="defs3174" />
  <sodipodi:namedview
     pagecolor="#ffffff"
     bordercolor="#666666"
     borderopacity="1"
     objecttolerance="10"
     gridtolerance="10"
     guidetolerance="10"
     inkscape:pageopacity="0"
     inkscape:pageshadow="2"
     inkscape:window-width="1535"
     inkscape:window-height="876"
     id="namedview3172"
     showgrid="false"
     inkscape:zoom="0.26339286"
     inkscape:cx="-67.796606"
     inkscape:cy="448"
     inkscape:window-x="65"
     inkscape:window-y="24"
     inkscape:window-maximized="1"
     inkscape:current-layer="svg2" />
  <metadata
     id="metadata62">
    <rdf:RDF>
      <cc:Work
         rdf:about="">
        <dc:format>image/svg+xml</dc:format>
        <dc:type
           rdf:resource="http://purl.org/dc/dcmitype/StillImage" />
        <dc:title />
      </cc:Work>
    </rdf:RDF>
  </metadata>
  <path
     inkscape:connector-curvature="0"
     d="m 510.20193,1050.9825 c 0,82.3006 -66.71693,149.0175 -149.01738,149.0175 -82.30045,0 -149.01739,-66.7169 -149.01739,-149.0175 0,-82.30038 66.71694,-149.01732 149.01739,-149.01732 82.30045,0 149.01738,66.71694 149.01738,149.01732 z m 0,-450.98254 c 0,82.30046 -66.71693,149.01738 -149.01738,149.01738 -82.30045,0 -149.01739,-66.71692 -149.01739,-149.01738 0,-82.30045 66.71694,-149.01738 149.01739,-149.01738 82.30045,0 149.01738,66.71693 149.01738,149.01738 z m 0,-450.98258 c 0,82.30045 -66.71693,149.01738 -149.01738,149.01738 -82.30045,0 -149.01739,-66.71693 -149.01739,-149.01738 C 212.16716,66.716927 278.8841,0 361.18455,0 443.485,0 510.20193,66.716927 510.20193,149.01738 z m 477.63091,901.96512 c 0,82.3006 -66.71692,149.0175 -149.01737,149.0175 -82.30045,0 -149.01738,-66.7169 -149.01738,-149.0175 0,-82.30038 66.71693,-149.01732 149.01738,-149.01732 82.30045,0 149.01737,66.71694 149.01737,149.01732 z m 0,-450.98254 c 0,82.30046 -66.71692,149.01738 -149.01737,149.01738 -82.30045,0 -149.01738,-66.71692 -149.01738,-149.01738 0,-82.30045 66.71693,-149.01738 149.01738,-149.01738 82.30045,0 149.01737,66.71693 149.01737,149.01738 z m 0,-450.98258 c 0,82.30045 -66.71692,149.01738 -149.01737,149.01738 -82.30045,0 -149.01738,-66.71693 -149.01738,-149.01738 C 689.79809,66.716927 756.51502,0 838.81547,0 921.11592,0 987.83284,66.716927 987.83284,149.01738 z"
     id="path4282" />
</svg>

<?xml version="1.0" encoding="utf-8"?>
<!-- Generator: Adobe Illustrator 16.0.0, SVG Export Plug-In . SVG Version: 6.00 Build 0)  -->
<!DOCTYPE svg PUBLIC "-//W3C//DTD SVG 1.1//EN" "http://www.w3.org/Graphics/SVG/1.1/DTD/svg11.dtd">
<svg version="1.1"
	 id="svg2" xmlns:dc="http://purl.org/dc/elements/1.1/" xmlns:cc="http://creativecommons.org/ns#" xmlns:rdf="http://www.w3.org/1999/02/22-rdf-syntax-ns#" xmlns:svg="http://www.w3.org/2000/svg" xmlns:sodipodi="http://sodipodi.sourceforge.net/DTD/sodipodi-0.dtd" xmlns:inkscape="http://www.inkscape.org/namespaces/inkscape" sodipodi:docname="braille.svg" inkscape:version="0.48.4 r9939"
	 xmlns="http://www.w3.org/2000/svg" xmlns:xlink="http://www.w3.org/1999/xlink" x="0px" y="0px" width="1200px" height="1200px"
	 viewBox="0 0 1200 1200" enable-background="new 0 0 1200 1200" xml:space="preserve">
<sodipodi:namedview  inkscape:cy="448" inkscape:cx="-67.796606" inkscape:zoom="0.26339286" showgrid="false" id="namedview3172" guidetolerance="10" gridtolerance="10" objecttolerance="10" borderopacity="1" bordercolor="#666666" pagecolor="#ffffff" inkscape:current-layer="svg2" inkscape:window-maximized="1" inkscape:window-y="24" inkscape:window-height="876" inkscape:window-width="1535" inkscape:pageshadow="2" inkscape:pageopacity="0" inkscape:window-x="65">
	</sodipodi:namedview>
<path id="path4282" inkscape:connector-curvature="0" d="M510.202,1050.982c0,82.301-66.717,149.018-149.018,149.018
	c-82.3,0-149.018-66.717-149.018-149.018c0-82.3,66.717-149.018,149.018-149.018C443.485,901.965,510.202,968.682,510.202,1050.982
	L510.202,1050.982z M510.202,600c0,82.301-66.717,149.018-149.018,149.018c-82.3,0-149.018-66.717-149.018-149.018
	s66.717-149.018,149.018-149.018C443.485,450.982,510.202,517.699,510.202,600L510.202,600z M510.202,149.018
	c0,82.3-66.717,149.017-149.018,149.017c-82.3,0-149.018-66.717-149.018-149.017C212.167,66.717,278.884,0,361.185,0
	C443.485,0,510.202,66.717,510.202,149.018L510.202,149.018z M987.833,1050.982c0,82.301-66.717,149.018-149.018,149.018
	s-149.018-66.717-149.018-149.018c0-82.3,66.717-149.018,149.018-149.018S987.833,968.682,987.833,1050.982z M987.833,600
	c0,82.301-66.717,149.018-149.018,149.018S689.798,682.301,689.798,600s66.717-149.018,149.018-149.018S987.833,517.699,987.833,600
	z M987.833,149.018c0,82.3-66.717,149.017-149.018,149.017s-149.018-66.717-149.018-149.017C689.798,66.717,756.515,0,838.815,0
	S987.833,66.717,987.833,149.018L987.833,149.018z"/>
</svg>
